humanity-icon-theme/Humanity-Dark/apps/22/nm-stage03-connecting09.svg

<?xml version="1.0" encoding="UTF-8" standalone="no"?>
<!-- Created with Inkscape (http://www.inkscape.org/) -->

<svg
   xmlns:svg="http://www.w3.org/2000/svg"
   xmlns="http://www.w3.org/2000/svg"
   version="1.0"
   width="22"
   height="22"
   id="svg3315">
  <defs
     id="defs3317" />
  <path
     d="M 15.375529,10.456988 20.205596,9.162776"
     id="path3279"
     style="opacity:0.2;fill:none;stroke:#878787;stroke-width:0.99999994px;stroke-linecap:round;stroke-linejoin:miter;stroke-opacity:1" />
  <path
     d="m 2.8068806,13.824749 4.8322518,-1.2948"
     id="path3281"
     style="fill:none;stroke:#878787;stroke-width:0.99999994px;stroke-linecap:round;stroke-linejoin:miter;stroke-opacity:1" />
  <path
     d="m 14.975348,9.490869 4.33052,-2.5002265"
     id="path2629"
     style="opacity:0.175;fill:none;stroke:#878787;stroke-width:0.99999994px;stroke-linecap:round;stroke-linejoin:miter;stroke-opacity:1" />
  <path
     d="M 3.7066066,15.996883 8.0390867,13.495521"
     id="path2631"
     style="opacity:0.875;fill:none;stroke:#878787;stroke-width:0.99999994px;stroke-linecap:round;stroke-linejoin:miter;stroke-opacity:1" />
  <path
     d="M 14.338755,8.661243 17.874608,5.1253903"
     id="path3403"
     style="opacity:0.15;fill:none;stroke:#878787;stroke-width:0.99999994px;stroke-linecap:round;stroke-linejoin:miter;stroke-opacity:1" />
  <path
     d="M 5.1378656,17.862135 8.6753198,14.324679"
     id="path3405"
     style="opacity:0.75;fill:none;stroke:#878787;stroke-width:0.99999994px;stroke-linecap:round;stroke-linejoin:miter;stroke-opacity:1" />
  <path
     d="M 13.509128,8.02465 16.009359,3.6941319"
     id="path3407"
     style="opacity:0.125;fill:none;stroke:#878787;stroke-width:0.99999994px;stroke-linecap:round;stroke-linejoin:miter;stroke-opacity:1" />
  <path
     d="M 7.0031167,19.293392 9.5044775,14.960914"
     id="path3409"
     style="opacity:0.675;fill:none;stroke:#878787;stroke-width:0.99999994px;stroke-linecap:round;stroke-linejoin:miter;stroke-opacity:1" />
  <path
     d="M 12.54301,7.624469 13.837224,2.7944041"
     id="path3415"
     style="opacity:0.1;fill:none;stroke:#878787;stroke-width:0.99999994px;stroke-linecap:round;stroke-linejoin:miter;stroke-opacity:1" />
  <path
     d="M 9.1752505,20.193121 10.470048,15.360868"
     id="path3417"
     style="opacity:0.6;fill:none;stroke:#878787;stroke-width:0.99999994px;stroke-linecap:round;stroke-linejoin:miter;stroke-opacity:1" />
  <path
     d="m 11.506235,7.4879768 2e-6,-5.0004522"
     id="path3419"
     style="opacity:0.075;fill:none;stroke:#878787;stroke-width:0.99999994px;stroke-linecap:round;stroke-linejoin:miter;stroke-opacity:1" />
  <path
     d="m 11.506235,20.5 10e-7,-5.002716"
     id="path3421"
     style="opacity:0.55;fill:none;stroke:#878787;stroke-width:0.99999994px;stroke-linecap:round;stroke-linejoin:miter;stroke-opacity:1" />
  <path
     d="M 10.469463,7.6244706 9.1752515,2.7944055"
     id="path3423"
     style="opacity:0.05;fill:none;stroke:#878787;stroke-width:0.99999994px;stroke-linecap:round;stroke-linejoin:miter;stroke-opacity:1" />
  <path
     d="m 13.837224,20.19312 -1.2948,-4.832254"
     id="path3425"
     style="opacity:0.5;fill:none;stroke:#878787;stroke-width:0.99999994px;stroke-linecap:round;stroke-linejoin:miter;stroke-opacity:1" />
  <path
     d="M 9.5033445,8.024653 7.0031191,3.6941325"
     id="path3427"
     style="opacity:0.025;fill:none;stroke:#878787;stroke-width:0.99999994px;stroke-linecap:round;stroke-linejoin:miter;stroke-opacity:1" />
  <path
     d="m 16.009355,19.293394 -2.501358,-4.33248"
     id="path3429"
     style="opacity:0.45;fill:none;stroke:#878787;stroke-width:0.99999994px;stroke-linecap:round;stroke-linejoin:miter;stroke-opacity:1" />
  <path
     d="M 17.87461,17.862134 14.337154,14.324681"
     id="path3433"
     style="opacity:0.4;fill:none;stroke:#878787;stroke-width:0.99999994px;stroke-linecap:round;stroke-linejoin:miter;stroke-opacity:1" />
  <path
     d="M 19.305866,15.996881 14.973387,13.495523"
     id="path3437"
     style="opacity:0.35;fill:none;stroke:#878787;stroke-width:0.99999988px;stroke-linecap:round;stroke-linejoin:miter;stroke-opacity:1" />
  <path
     d="M 20.205595,13.824749 15.373342,12.52995"
     id="path2407"
     style="opacity:0.3;fill:none;stroke:#878787;stroke-width:0.99999994px;stroke-linecap:round;stroke-linejoin:miter;stroke-opacity:1" />
  <path
     d="m 20.512474,11.493761 -5.002717,1e-6"
     id="path2413"
     style="opacity:0.25;fill:none;stroke:#878787;stroke-width:0.99999994px;stroke-linecap:round;stroke-linejoin:miter;stroke-opacity:1" />
  <path
     d="m 2.5,11.493764 5.002717,-1e-6"
     id="path2401"
     style="opacity:0;fill:none;stroke:#878787;stroke-width:0.99999994px;stroke-linecap:round;stroke-linejoin:miter;stroke-opacity:1" />
  <path
     d="M 3.7066075,6.9906449 8.0390877,9.492001"
     id="path2405"
     style="opacity:0;fill:none;stroke:#878787;stroke-width:0.99999994px;stroke-linecap:round;stroke-linejoin:miter;stroke-opacity:1" />
  <path
     d="m 2.8068806,9.162777 4.8322533,1.294797"
     id="path2410"
     style="opacity:0;fill:none;stroke:#878787;stroke-width:0.99999994px;stroke-linecap:round;stroke-linejoin:miter;stroke-opacity:1" />
  <path
     d="M 5.1378662,5.1253902 8.6753208,8.662845"
     id="path2414"
     style="opacity:0;fill:none;stroke:#878787;stroke-width:0.99999994px;stroke-linecap:round;stroke-linejoin:miter;stroke-opacity:1" />
</svg>

<?xml version="1.0" encoding="UTF-8" standalone="no"?>
<!-- Created with Inkscape (http://www.inkscape.org/) -->
<svg id="svg3315" xmlns="http://www.w3.org/2000/svg" height="22" width="22" version="1.0">
 <path id="path3279" style="opacity:.2;stroke:#878787;stroke-linecap:round;stroke-width:1px;fill:none" d="m15.376 10.457 4.83-1.2942"/>
 <path id="path3281" style="stroke:#878787;stroke-linecap:round;stroke-width:1px;fill:none" d="m2.8069 13.825 4.8323-1.2948"/>
 <path id="path2629" style="opacity:.175;stroke:#878787;stroke-linecap:round;stroke-width:1px;fill:none" d="m14.975 9.4909 4.3305-2.5002"/>
 <path id="path2631" style="opacity:.875;stroke:#878787;stroke-linecap:round;stroke-width:1px;fill:none" d="m3.7066 15.997 4.3325-2.501"/>
 <path id="path3403" style="opacity:.15;stroke:#878787;stroke-linecap:round;stroke-width:1px;fill:none" d="m14.339 8.6612 3.536-3.5358"/>
 <path id="path3405" style="opacity:.75;stroke:#878787;stroke-linecap:round;stroke-width:1px;fill:none" d="m5.1379 17.862 3.5374-3.537"/>
 <path id="path3407" style="opacity:.125;stroke:#878787;stroke-linecap:round;stroke-width:1px;fill:none" d="m13.509 8.0246 2.5-4.3305"/>
 <path id="path3409" style="opacity:.675;stroke:#878787;stroke-linecap:round;stroke-width:1px;fill:none" d="m7.0031 19.293 2.5014-4.332"/>
 <path id="path3415" style="opacity:.1;stroke:#878787;stroke-linecap:round;stroke-width:1px;fill:none" d="m12.543 7.6245 1.294-4.8301"/>
 <path id="path3417" style="opacity:.6;stroke:#878787;stroke-linecap:round;stroke-width:1px;fill:none" d="m9.1753 20.193 1.2947-4.832"/>
 <path id="path3419" style="opacity:.075;stroke:#878787;stroke-linecap:round;stroke-width:1px;fill:none" d="m11.506 7.488 0.000002-5.0005"/>
 <path id="path3421" style="opacity:.55;stroke:#878787;stroke-linecap:round;stroke-width:1px;fill:none" d="m11.506 20.5 0.000001-5.0027"/>
 <path id="path3423" style="opacity:.05;stroke:#878787;stroke-linecap:round;stroke-width:1px;fill:none" d="m10.469 7.6245-1.2937-4.8301"/>
 <path id="path3425" style="opacity:.5;stroke:#878787;stroke-linecap:round;stroke-width:1px;fill:none" d="m13.837 20.193-1.2948-4.8323"/>
 <path id="path3427" style="opacity:.025;stroke:#878787;stroke-linecap:round;stroke-width:1px;fill:none" d="m9.5033 8.0247-2.5002-4.3306"/>
 <path id="path3429" style="opacity:.45;stroke:#878787;stroke-linecap:round;stroke-width:1px;fill:none" d="m16.009 19.293-2.5014-4.3325"/>
 <path id="path3433" style="opacity:.4;stroke:#878787;stroke-linecap:round;stroke-width:1px;fill:none" d="m17.875 17.862-3.538-3.537"/>
 <path id="path3437" style="opacity:.35;stroke:#878787;stroke-linecap:round;stroke-width:1px;fill:none" d="m19.306 15.997-4.333-2.501"/>
 <path id="path2407" style="opacity:.3;stroke:#878787;stroke-linecap:round;stroke-width:1px;fill:none" d="m20.206 13.825-4.833-1.295"/>
 <path id="path2413" style="opacity:.25;stroke:#878787;stroke-linecap:round;stroke-width:1px;fill:none" d="m20.512 11.494-5.0027 0.000001"/>
 <path id="path2401" style="opacity:0;stroke-width:1px" d="m2.5 11.494 5.0027-0.000001"/>
 <path id="path2405" style="opacity:0;stroke-width:1px" d="m3.7066 6.9906 4.3325 2.5014"/>
 <path id="path2410" style="opacity:0;stroke-width:1px" d="m2.8069 9.1628 4.8323 1.2948"/>
 <path id="path2414" style="opacity:0;stroke-width:1px" d="m5.1379 5.1254 3.5374 3.5374"/>
</svg>
